remix/Media/repeat-fill.svg

<svg viewBox="0 0 24 24" xmlns="http://www.w3.org/2000/svg"><path fill="none" d="M0 0h24v24H0Z"/><path d="M6 4h15v0c.55 0 1 .44 1 1v7h-2V6H6v3L1 5l5-4v3Zm12 16H3v0c-.56 0-1-.45-1-1v-7h2v6h14v-3l5 4 -5 4v-3Z"/></svg>

<svg viewBox="0 0 24 24" fill="currentColor" xmlns="http://www.w3.org/2000/svg"><path d="M6 4H21C21.5523 4 22 4.44772 22 5V12H20V6H6V9L1 5L6 1V4ZM18 20H3C2.44772 20 2 19.5523 2 19V12H4V18H18V15L23 19L18 23V20Z"/></svg>
